X: 1
T: Ruotsinkatrilli Sahalahdelta
O: Finland
P: (AB)4 (C2D)2 A2
Z: 2013 John Chambers <jc:trillian.mit.edu>
S: printed copy of unknown origin
Q: 1/4=88
M: 2/4
L: 1/16
K: F
"A"[|]ab |\
"F"c'bag f2a2 | c4 c2B2 | Acf2 Acf2 | "Gm"g^fga g2a2 |
"C7"bagf e2g2 | B4 B2A2 | Gce2 Gce2 | "F"f2a2f2 |
"B"[|]"C7"ce |\
g2gg g^fga | "F"f2Ac f2Ac | "C7"b2bb babc | "F"a2cf acfa |
"C7"g2gg g^fga | "F"f2Ac f2Ac | "Bb"dBdf "C7"eceg | "F"fcfa f2 |]
"C"|: cB |\
"F"Accc cfff | "Bb"dBBB B2A2 | "C7"Gce2 Gce2 | "F"fefg f2cB |
"F"Accc cfff | "Bb"dBBB B2A2 | "C7"Gce2 Gce2 | "F"f2a2f2 :|
"D"[|]ef |\
"C7"gBAB GBAB | "F"Ac=Bc Acfa | "C7"gBAB GBAB | "F"AFAc f2cB |
"F"Accc cfff | "Bb"dBBB B2A2 | "C7"Gce2 gce2 | "F"f2a2f2 |]
